packages/dnb-ui-lib/assets/icons/information.svg

<svg width="16" height="16" viewBox="0 0 16 16" fill="none" xmlns="http://www.w3.org/2000/svg">
<path fill-rule="evenodd" clip-rule="evenodd" d="M7.16603 3.66532C7.71799 3.66532 8.16544 3.21787 8.16544 2.66591C8.16544 2.11395 7.71799 1.6665 7.16603 1.6665C6.61408 1.6665 6.16663 2.11395 6.16663 2.66591C6.16663 3.21787 6.61408 3.66532 7.16603 3.66532ZM6.16663 5.41384C5.75241 5.41384 5.41663 5.74963 5.41663 6.16384C5.41663 6.57805 5.75241 6.91384 6.16663 6.91384H6.91574V12.0007C6.91574 13.2428 7.9227 14.2498 9.16485 14.2498H9.91441C10.3286 14.2498 10.6644 13.914 10.6644 13.4998C10.6644 13.0856 10.3286 12.7498 9.91441 12.7498H9.16485C8.75113 12.7498 8.41574 12.4144 8.41574 12.0007V6.9134C8.41574 6.08522 7.74436 5.41384 6.91618 5.41384H6.16663Z" fill="black"/>
</svg>

<svg width="16" height="16" viewBox="0 0 16 16" fill="none" xmlns="http://www.w3.org/2000/svg"><path fill-rule="evenodd" clip-rule="evenodd" d="M7.166 3.665a1 1 0 100-1.998 1 1 0 000 1.998zm-1 1.749a.75.75 0 100 1.5h.75V12a2.25 2.25 0 002.249 2.249h.75a.75.75 0 000-1.5h-.75a.75.75 0 01-.75-.75V6.914a1.5 1.5 0 00-1.499-1.5h-.75z" fill="#000"/></svg>
